src/main/resources/icons/BehatIcons/icons/behat.svg

<svg xmlns="http://www.w3.org/2000/svg" width="16" height="16" viewBox="0 0 16 16">
  <path fill="#9AA7B0" fill-rule="evenodd" d="M8.87973541,6.82997213 C8.73830334,6.72377952 8.44458402,6.50359579 8.44458402,6.50359579 L8.78376927,7.92657674 L10.171188,7.88227451 C10.171188,7.88227451 9.97768247,7.7070567 9.8661415,7.6060078 C10.5781788,6.53661505 10.7811236,5.38110673 10.3140359,4.13881914 C9.99734767,3.29641309 9.43854154,2.67950041 8.66735133,2.28675368 C7.12386965,1.50043061 5.23679772,2.11817292 4.36492172,3.65779981 C3.49131518,5.20074522 3.82247704,7.58145076 5.81338118,8.63707166 C5.64426052,8.77362871 5.4724654,8.89989836 5.31419992,9.04226283 C3.94597445,10.2735993 3.51208163,12.216924 4.2201859,13.9559939 C4.24378413,14.0143999 4.29868935,14.1209243 4.29868935,14.1209243 L3.68954033,14.486791 L5.5017272,14.7703585 L6.18654789,13.0274723 L5.52469615,13.3998101 C5.52469615,13.3998101 5.51132382,13.3518575 5.50455899,13.3282961 C5.44823788,13.1336649 5.38829837,12.9549627 5.35400227,12.7709508 C5.09914137,11.3982454 5.89880678,10.0630393 7.22376883,9.63743921 C8.43215562,9.24933841 9.82539522,9.96364963 10.3123054,11.2208706 C10.9329389,12.8232175 10.0623215,14.5823644 8.46031617,14.9563615 C8.39282523,14.9719585 8.32344643,14.9819141 8.25375299,14.9875556 C8.19444276,14.9925333 8.07597964,15 8.07597964,15 L3,15 C3,15 3.00629286,8.65465981 3.0138443,5.60693195 C3.01887859,3.5554235 4.0792258,1.92171659 5.91485358,1.26332242 C7.51890405,0.687891227 8.9723978,1.06952091 10.2174405,2.2714885 C11.5974651,3.60387388 11.9158839,5.8291068 10.9909905,7.5484315 C10.8948671,7.72713374 10.7712123,7.88957525 10.6466137,8.08039009 C10.7150486,8.1258538 10.7749881,8.16750122 10.8365008,8.20616196 C12.9844118,9.55563772 13.6574334,12.6378782 12.2892079,14.8432 C12.2464165,14.9120592 12.1441575,14.9993363 12.1441575,14.9993363 C12.1441575,14.9993363 11.3820919,14.9963496 11.0539192,14.9963496 C11.2414464,14.652717 11.438885,14.3512295 11.5798451,14.0226962 C12.6106158,11.6219136 11.3606962,8.85012058 8.94801296,8.18260048 C8.19334151,7.97386563 7.4279722,7.80760783 6.67408735,7.59588632 C5.58809673,7.29091442 4.93993197,6.1743987 5.15090016,5.01026223 C5.3527437,3.89673318 6.37124338,3.11372862 7.46399883,3.23170197 C9.03044945,3.40111237 9.87731133,5.32187117 8.98828728,6.69109211 C8.95855351,6.7370536 8.92111098,6.77770546 8.87973541,6.82997213"/>
</svg>

<svg xmlns="http://www.w3.org/2000/svg" width="16" height="16" viewBox="0 0 16 16"><rect id="frame" width="16" height="16" fill="none"/><path fill="#9AA7B0" fill-rule="evenodd" d="M8.88 6.83l-.435-.326.339 1.423 1.387-.045-.305-.276c.712-1.07.915-2.225.448-3.467a3.326 3.326 0 0 0-1.647-1.852c-1.543-.787-3.43-.169-4.302 1.37-.874 1.544-.543 3.924 1.448 4.98-.169.137-.34.263-.499.405-1.368 1.232-1.802 3.175-1.094 4.914.024.058.079.165.079.165l-.61.366 1.813.283.685-1.743-.662.373-.02-.072c-.057-.194-.117-.373-.151-.557a2.755 2.755 0 0 1 1.87-3.134c1.208-.388 2.601.327 3.088 1.584.62 1.602-.25 3.361-1.852 3.735a1.432 1.432 0 0 1-.206.032L8.076 15H3s.006-6.345.014-9.393c.005-2.052 1.065-3.685 2.9-4.344C7.52.688 8.973 1.07 10.218 2.271c1.38 1.333 1.699 3.558.774 5.277-.096.18-.22.342-.344.532.068.046.128.088.19.126 2.147 1.35 2.82 4.432 1.452 6.637-.043.07-.145.156-.145.156l-1.09-.003c.187-.343.385-.645.526-.973 1.03-2.401-.22-5.173-2.632-5.84-.755-.21-1.52-.375-2.274-.587C5.588 7.29 4.94 6.174 5.151 5.01c.202-1.113 1.22-1.896 2.313-1.778 1.566.17 2.413 2.09 1.524 3.46-.03.045-.067.086-.108.138"/></svg>
